X: 635
T: Ratcliffe Cross
M:3/2
L:1/8
C:Ravenscroft
S: 8: MCJLSH3 http://www.cpartington.plus.com/links/Walsh.abc
Z: Pete Stewart 2004
B: Walsh "Third Book of the most Celebrated jiggs, Lancashire hornpipes, ..."
K:F
f2c4BcA2F2 | D2Bd GB DFE2C2 | EGBA GFEDC2c2 | AFEF CFEGF4 ||
cfaf bagf e2c2 | Bdgd gfedc2B2 | Acfc fedcB2c2 | AFEF CFEGF4 ||
f2c2_egfe dBAB | g2d2fagf =ecBc | a2e2fagf edcB | AFEF CFEGF4 ||
afcf Acfad2B2 | bgdg Bdgbe2c2 | dBGB DFBdE2c2 | AFEF CFEGF4 ||

%%sep 1 1 500
%%sep 1 1 500
